svgs/regular/code-pull-request.svg

<svg xmlns="http://www.w3.org/2000/svg" viewBox="0 0 512 512"><!--! Font Awesome Pro 6.1.1 by @fontawesome - https://fontawesome.com License - https://fontawesome.com/license (Commercial License) Copyright 2022 Fonticons, Inc. --><path d="M305.8 2.076C314.4 5.932 320 14.52 320 24V72H336C402.3 72 456 125.7 456 192V355.7C488.5 365.9 512 396.2 512 432C512 476.2 476.2 512 432 512C387.8 512 352 476.2 352 432C352 396.2 375.5 365.9 408 355.7V192C408 152.2 375.8 120 336 120H320V168C320 177.5 314.4 186.1 305.8 189.9C297.1 193.8 286.1 192.2 279.9 185.8L199.9 113.8C194.9 109.3 192 102.8 192 96C192 89.2 194.9 82.71 199.9 78.16L279.9 6.161C286.1-.1791 297.1-1.779 305.8 2.077V2.076zM432 464C449.7 464 464 449.7 464 432C464 414.3 449.7 400 432 400C414.3 400 400 414.3 400 432C400 449.7 414.3 464 432 464zM104 355.7C136.5 365.9 160 396.2 160 432C160 476.2 124.2 512 80 512C35.82 512 0 476.2 0 432C0 396.2 23.54 365.9 56 355.7V156.3C23.54 146.1 0 115.8 0 80C0 35.82 35.82 .0001 80 .0001C124.2 .0001 160 35.82 160 80C160 115.8 136.5 146.1 104 156.3V355.7zM80 48C62.33 48 48 62.33 48 80C48 97.67 62.33 112 80 112C97.67 112 112 97.67 112 80C112 62.33 97.67 48 80 48zM80 400C62.33 400 48 414.3 48 432C48 449.7 62.33 464 80 464C97.67 464 112 449.7 112 432C112 414.3 97.67 400 80 400z"/></svg>

<svg xmlns="http://www.w3.org/2000/svg" viewBox="0 0 512 512"><!--! Font Awesome Pro 6.4.2 by @fontawesome - https://fontawesome.com License - https://fontawesome.com/license (Commercial License) Copyright 2023 Fonticons, Inc. --><path d="M305.8 2.1C314.4 5.9 320 14.5 320 24V72h16c66.3 0 120 53.7 120 120V355.7c32.5 10.2 56 40.5 56 76.3c0 44.2-35.8 80-80 80s-80-35.8-80-80c0-35.8 23.5-66.1 56-76.3V192c0-39.8-32.2-72-72-72H320v48c0 9.5-5.6 18.1-14.2 21.9s-18.8 2.3-25.8-4.1l-80-72c-5.1-4.6-7.9-11-7.9-17.8s2.9-13.3 7.9-17.8l80-72c7-6.3 17.2-7.9 25.8-4.1zM112 80A32 32 0 1 0 48 80a32 32 0 1 0 64 0zm-8 76.3V355.7c32.5 10.2 56 40.5 56 76.3c0 44.2-35.8 80-80 80s-80-35.8-80-80c0-35.8 23.5-66.1 56-76.3V156.3C23.5 146.1 0 115.8 0 80C0 35.8 35.8 0 80 0s80 35.8 80 80c0 35.8-23.5 66.1-56 76.3zM112 432a32 32 0 1 0 -64 0 32 32 0 1 0 64 0zm320 32a32 32 0 1 0 0-64 32 32 0 1 0 0 64z"/></svg>
